X: 31
T: Szczęśliwy, komu grzechy odpuszczono
C: Mikołaj Gomółka
%%abc-version 2.0
%%abcx-abcm2ps-target-version 5.9.1 (29 Sep 2008)
%%abc-creator hum2abc beta
%%abcx-conversion-date 2021/10/04 07:59:09
%%abc-edited-by Marta Lawrence
%%abcx-initial-encoding-date 2020-02-07
%%humdrum-veritas 4219628020
%%humdrum-veritas-data 543315359
%%linebreak <none>
%%barnumbers 0
L: 1/4
M: C|
N: Derived from pl-wn--sd-xvi-qu-273--032_gomolka-mikolaj--szczesliwy-komu-grzechy-odpuszczono.krn
%%staves [1 2 3 4]
V: 1
V: 2 clef=alto
V: 3 clef=alto
V: 4
K: C
[V:1] A4A2A2 [|] 
[V:2] F4E2^F2 [|] 
[V:3] D4^C2D2 [|] 
[V:4] D,4A,2D,2 [|] 
[V:1] B4c2c2 [|] 
[V:2] G4G2G2 [|] 
[V:3] D4E2E2 [|] 
[V:4] G,4C,2C2 [|] 
[V:1] B2A4^G2 [|] 
[V:2] x2E2E3D [|] 
[V:3] D=CB,A,B,2B,2 [|] 
[V:4] G,2A,2E,2E,2 [|] 
[V:1] A4 :|]  
[V:2] ^C4 :|]  
[V:3] A,4 :|]  
[V:4] A,,4 :|]  
[V:1] ^F4 [I:setbarnb 5][|] 
[V:2] D4 [|] 
[V:3] A,4 [|] 
[V:4] D,4 [|] 
[V:1] G2A2G4 [|] 
[V:2] D2D4G,2 [|] 
[V:3] B,2A,2B,3C [|] 
[V:4] G,2^F,2G,4 [|] 
[V:1] ^F2A2^G2A2 [|] 
[V:2] A,2D2B,2A,2 [|] 
[V:3] D2F2E2D2 [|] 
[V:4] D,2D,2E,2=F,2 [|] 
[V:1] =G2E2^F2A2 [|] 
[V:2] B,2A,2A,2FG [|] 
[V:3] D2^C2D2D2 [|] 
[V:4] G,2A,2D,2D,2 [|] 
[V:1] c2c2B4 [|] 
[V:2] A2A2D4 [|] 
[V:3] E2F2G4 [|] 
[V:4] A,2A,2G,4 [|] 
[V:1] A4c3B [|] 
[V:2] D4G3F [|] 
[V:3] F4E3D [|] 
[V:4] D,4C,2D,2 [|] 
[V:1] A2G^FGA2G [|] 
[V:2] F2F2E3D [|] 
[V:3] =C2D2B,4 [|] 
[V:4] F,2D,2E,4 [|] 
[V:1] A32 |]  
[V:2] ^C32 |]  
[V:3] A,32 |]  
[V:4] A,,32 |]  


